X:1
T:Title
%%score [ ( 1 2 ) ( 3 4 ) ]
L:1/8
Q:1/4=60
M:4/4
K:C
V:1 treble-8 nm="Tenor I/II"
V:2 treble-8 
V:3 bass nm="Bass I/II"
V:4 bass 
V:1
"^Slowly with expression" ccd^d eccB | fffc c3 B | ccee ddd_B | =Bd^c=c B2 g=f | eeee ee^cc | %5
w: Ire- land must be Hea- ven, for an|an- gel came from there, I|nev- er knew a liv- ing soul one|half as sweet or fair, For her|eyes are like the star- light, And the|
 =cccc c2 ^dd | e!<(!cd^d!<)! ec^cc | =c<A !fermata!^f!fermata!=f e4 |] %8
w: white clouds match her hair, Sure _|Ire- land must be Hea- ven, For My|Moth- er Came From There.|
V:2
 GEF^F Gee=d | dccA G3 G | EGcB ABc^c | dB (A/G/) (E/D/) G2 ed | dccB dcfe | edAe d2 (BA) | %6
 GEF^F Gefe | e<c !fermata!c!fermata!d c4 |] %8
V:3
!mf! E,G,A,C CG,^G,G, | A,A,A,F, E,3 F, | G,E,G,G, ^F,F,F,G, | G,^G,E,^F, D,2 B,B, | %4
 G,G,G,G, G,G,A,G, | ^F,F,F,G, F,2 (F,F,) |!<(! G,G,A,C!<)! CG,A,G, | %7
!f! ^F,<F, !fermata!_A,!fermata!B, G,4 |] %8
V:4
 C,C,C,C, C,C,E,E, | F,F,F,,A,, C,3 D, | C,C,C,C, D,D,D,_E, | D,E,A,,A,, G,,2 =G,G, | %4
 C,C,C,C, _B,,B,,A,,A,, | D,D,D,D, D,2 (B,,B,,) | C,C,C,C, C,_B,,A,,A,, | %7
 D,<D, !fermata!_E,!fermata!G, C,4 |] %8

